landing/libs/img/facebook.svg

<?xml version="1.0" encoding="utf-8"?>
<!-- Generated by IcoMoon.io -->
<!DOCTYPE svg PUBLIC "-//W3C//DTD SVG 1.1//EN" "http://www.w3.org/Graphics/SVG/1.1/DTD/svg11.dtd">
<svg version="1.1" xmlns="http://www.w3.org/2000/svg" xmlns:xlink="http://www.w3.org/1999/xlink" width="64" height="64" viewBox="0 0 64 64">
<g>
</g>
	<path d="M53.334 0h-42.666c-5.867 0-10.668 4.801-10.668 10.668v42.664c0 5.871 4.801 10.668 10.668 10.668l42.666-0c5.867 0 10.666-4.797 10.666-10.668v-42.664c0-5.867-4.799-10.668-10.666-10.668zM54.412 32h-10.412v28h-12v-28h-5.783v-9.16h5.783v-5.949c0-8.084 3.487-12.891 12.992-12.891h10.953v9.911h-8.946c-2.655-0.004-2.984 1.384-2.984 3.97l-0.014 4.96h12l-1.588 9.16z" fill="#000000" />
</svg>

<svg xmlns="http://www.w3.org/2000/svg" viewBox="0 0 64 64" enable-background="new 0 0 64 64"><path d="M53.334,0H10.668C4.801,0,0,4.801,0,10.668v42.664C0,59.203,4.801,64,10.668,64h42.666
	C59.201,64,64,59.203,64,53.332V10.668C64,4.801,59.201,0,53.334,0z M54.412,32H44v28H32V32h-5.783v-9.16H32v-5.949
	C32,8.807,35.486,4,44.992,4h10.953v9.911h-8.946c-2.655-0.004-2.983,1.384-2.983,3.97l-0.015,4.96h12L54.412,32L54.412,32z" fill="#3b5998"/></svg>
